X: 1592
T: Rast Aranağme (Curcuna)
C: ?
O: Turkey
F: http://compmusic.upf.edu/node/140
N: rast--aranagme--curcuna--1--
N: makam= rast
N: form= aranagme
N: usul= curcuna = 10/8
M: 10/8
L: 1/16
K: C _1/4B ^f  
Q: 1/4=192
%%MIDI tuningsystem comma53
d2c2 d2e4c2 e2d4z2  | B2A2 B2c4A2 c2B4z2  | \
w:  ARANAĞME  |   | 
G4 A2B2 c2d2 e2=f2 e2d2  | 
w:   | 
a2g2 =f2e2 d2e2 c2d4z2  | d2c2 d2e4c2 e2d4z2  | \
w:   |  ARANAĞME  | 
B2A2 B2c4A2 c2B4z2  | 
w:   | 
G4 g2=f2 e2d2 c2B2 A2G2  | A2B2 c2B2 A2G2 F2G4z2  | |


